X:7
T:The Outlandish Knight
C:Trad
B:Bronson
O:"The Outlandish Knight." Baring-Gould MSS., CXIV(3).
O:Singer unknown March 1891 noted by F.W.Bussell
N:No lyrics in Bronson
M:4/4
L:1/8
K:G
G2 | d2 d2 de cA | G2 GG G2 Sd2 |
e2 d2 f2 e2 | g6 Sd2 | g2 fe d2 ef |
g2 d2 B2 Sc2 | d2 ed c2 F2 | G6 |]
